X:1
T:Lucis Creator optime - Decius
T:James Gibb editions
%%score { 1 | 2 } 3
L:1/8
Q:1/4=160
M:2/2
K:A
V:1 treble nm="Soprano I" snm="S"
V:2 treble 
V:3 treble nm="Alto" snm="A"
V:1
"^Lucis Creator optime""^Nikolaus Decius\n (1480-1529)""^andante" !>!A4 | c4 d4 | e4 d4 | c4 B4 | %4
w: Lu-|cis Cre-|a- tor|o- pti-|
w: Qui|ma- ne|jun- ctum|ve- spe-|
w: Ne|mens gra-|va- ta|cri- mi-|
w: Coe-|le- ste|pul- set|o- sti-|
w: Prae-|sta, Pa-|ter pi-|is- si-|
"^," c4 !>!c4 | B4 c4 | d4 c4 | B4 ^A4 |"^," B4 !>!B4 |[M:2/2] c4 (d2 d2) | e4 d4 | (c4 B4) | %12
w: me, lu-|cem di-|e- rum|pro- fe-|rens, pri-|mor- di- is|lu- cis|no\- *|
w: ri di-|em vo-|ca- ri|prae- ci-|pis: il-|la- bi- tur|te- trum|cha\- *|
w: ne, vi-|tae sit|ex- sul|mu- ne-|re, dum|nil pe\- *|ren- ne|co- gi-|
w: um: vi-|ta- le|tol- lat|prae- mi-|um: vi-|te- mus *|o- mne|no- xi-|
w: me, Pa-|tri- que|com- par|U- ni-|ce, cum|Spi- ri\- *|tu Pa-|ra- cli-|
"^," c4 !>!c4 | c4 (B2 c2) | d4 B4 | A4 B4 | !fermata!A8 | (A4 B4) | !fermata!c8 |] %19
w: vae, mun-|di pa\- *|rans o-|ri- gi-|nem:|||
w: os; au-|di pre\- *|ces cum|fle- ti-|bus.|||
w: tat se-|se- que *|cul- pis|il- li-|gat.|||
w: um, pur-|ge- mus *|o- mne|pes- si-|mum.|||
w: to re-|gnans per *|o- mne|sae- cu-|lum.|A\- *|men.|
V:2
 !>!A4 | A4 A4 | G4 (A2 B2) | A4 G4 |"^," A4 !>!A4 | F4 ^A4 | B4 F4 | F4 (F2 E2) |"^," D4 !>!G4 | %9
w: Lu-|cis Cre-|a- tor *|o- pti-|me, lu-|cem di-|e- rum|pro- fe\- *|rens, pri-|
w: Qui|ma- ne|jun- ctum *|ve- spe-|ri di-|em vo-|ca- ri|prae- ci\- *|pis: il-|
w: Ne|mens gra-|va- ta *|cri- mi-|ne, vi-|tae sit|ex- sul|mu- ne\- *|re, dum|
w: Coe-|le- ste|pul- set *|o- sti-|um: vi-|ta- le|tol- lat|prae- mi\- *|um: vi-|
w: Prae-|sta, Pa-|ter pi\- *|is- si-|me, Pa-|tri- que|com- par|U- ni\- *|ce, cum|
[M:2/2] A4 (A2 A2) | G4 (A2 B2) | (A4 (G2 F2)) |"^," ^E4 !>!G4 | A4 F4 | F4 (F2 D2) | C4 D4 | %16
w: mor- di- is|lu- cis *|no\- * *|vae, mun-|di pa-|rans o\- *|ri- gi-|
w: la- bi- tur|te- trum *|cha\- * *|os; au-|di pre-|ces cum *|fle- ti-|
w: nil pe\- *|ren- ne *|co- gi\- *|tat se-|se- que|cul- pis *|il- li-|
w: te- mus *|o- mne *|no- xi\- *|um, pur-|ge- mus|o- mne *|pes- si-|
w: Spi- ri\- *|tu Pa\- *|ra- cli\- *|to re-|gnans per|o- mne *|sae- cu-|
 !fermata!C8 | F8 | !fermata!E8 |] %19
w: nem:|||
w: bus.|||
w: gat.|||
w: mum.|||
w: lum.|A-|men.|
V:3
 !>!A4 | (A2 G2) F4 | E4 (F2 G2) | A4 E4 |"^," A,4 !>!A,4 | D4 C4 | B,4 E4 | D4 F4 | %8
w: Lu-|cis * Cre-|a- tor *|o- pti-|me, lu-|cem di-|e- rum|pro- fe-|
w: Qui|ma\- * ne|jun- ctum *|ve- spe-|ri di-|em vo-|ca- ri|prae- ci-|
w: Ne|mens * gra-|va- ta *|cri- mi-|ne, vi-|tae sit|ex- sul|mu- ne-|
w: Coe-|le\- * ste|pul- set *|o- sti-|um: vi-|ta- le|tol- lat|prae- mi-|
w: Prae-|sta, * Pa-|ter pi\- *|is- si-|me, Pa-|tri- que|com- par|U- ni-|
"^," B,4 !>!E4 |[M:2/2] A4 (F2 F2) | E4 (F2 G2) | (A4 (E2 D2)) |"^," C4 !>!^E4 | F4 D4 | B,4 D4 | %15
w: rens, pri-|mor- di- is|lu- cis *|no\- * *|vae, mun-|di pa-|rans o-|
w: pis: il-|la- bi- tur|te- trum *|cha\- * *|os; au-|di pre-|ces cum|
w: re, dum|nil pe\- *|ren- ne *|co- gi\- *|tat se-|se- que|cul- pis|
w: um: vi-|te- mus *|o- mne *|no- xi\- *|um, pur-|ge- mus|o- mne|
w: ce, cum|Spi- ri\- *|tu Pa\- *|ra- cli\- *|to re-|gnans per|o- mne|
 E4 E4 | !fermata!A,8 | D8 | !fermata!A,8 |] %19
w: ri- gi-|nem:|||
w: fle- ti-|bus.|||
w: il- li-|gat.|||
w: pes- si-|mum.|||
w: sae- cu-|lum.|A-|men.|

